!!!!SEGMENT: pl-kk--kk-i-40--009-002_lasso-orlando-di--missa-sexti-toni-et-in-terra.krn
!!!cenid: 16xx:1311
!!!COM: Lasso, Orlando di
!!!COM-rism: pe506
!!!CDT: ~1532-1594/06/14
!!!CNT: Franco-Flemish
!!!OTL: Missa Sexti Toni – Et in terra
!!!PDT:
!!!AGN: Sacred; Mass
!!!SMS-siglum: PL-Kk
!!!SMS-shelfmark: Kk.I.40
!!!NIFC-rismID: 1001154531
!!!URL-scan: http://repozytorium.nifc.pl/skany/pl-kk-nut--i-40
!!!ONB-nifc: UWAGA: części Mszy: 1. Kyrie, 2. Et in terra, 3. Sanctus, 4. Agnus Dei. Skan 0012-0013
!!!SMS-variant:
!!!SMS-altvar:
**kern	**text
*I"Baſso Ripieno.	*
*I'B rip	*
*clefF4	*
*k[b-]	*
*M2/1	*
*met(C|)	*
=1-	=1-
!LO:TX:b:t=Et in terra	!
!LO:TX:t=P:problem:przy kluczu BB- B-	!
00r	.
=2-	=2-
.	.
=3-	=3-
2r	.
4F\	Bo-
!LO:TX:t=P:problem:kreska pseudotaktowa	!
4F\	-nae
4E\	vo-
4F\	-lun-
*2\right	*
!LO:TX:t=P:problem:kreska pseudotaktowa	!
2D\	-ta-
=4-	=4-
2C,</	-tis.
!LO:TX:t=P:problem:kreska pseudotaktowa	!
2C/	Lau-
2D\	-da-
2E\	-m(us)
=5-	=5-
!LO:TX:t=P:problem:kreska pseudotaktowa	!
1F	Te.
1r	.
=6-	=6-
2r	.
2.F\	a-
4G\	-do-
2D\	-ra-
=7-	=7-
!LO:TX:t=P:problem:kreska pseudotaktowa	!
1F	-m(us)
2C,</	Te
!LO:TX:t=P:problem:kreska pseudotaktowa	!
2F\	glo-
=8-	=8-
2C/	-ri-
!LO:TX:t=P:problem:kreska pseudotaktowa	!
2AA/	-fi-
2BB-/	-ca-
!LO:TX:t=P:problem:kreska pseudotaktowa	!
2C/	-m(us)
=9-	=9-
2F,<\	Te.
4BB-/	Gra-
!LO:TX:t=P:problem:kreska pseudotaktowa	!
4BB-/	-ti-
2F,<\	-as
1D\	a-
=10-	=10-
.	.
!LO:TX:t=P:problem:kreska pseudotaktowa	!
2AA/	-gi-
2BB-,</	-m(us)
(2B-\	Ti-
=11-	=11-
1G)	.
!LO:TX:t=P:problem:kreska pseudotaktowa	!
0F,<	-bi.
=12-	=12-
.	.
!LO:TX:t=P:problem:kreska pseudotaktowa	!
1r	.
!LO:LB:g=original	!
=13-	=13-
2.C/	Do-
4C/	-mi-
2F,<\	-ne
!LO:TX:t=P:problem:kreska pseudotaktowa	!
2D\	De-
=14-	=14-
2E\	-us
1F,<	Rex
2E\	cae-
=15-	=15-
1F	-le-
!LO:TX:t=P:problem:kreska pseudotaktowa	!
1C	-stis
=16-	=16-
2r	.
4F\	De-
!LO:TX:t=P:problem:kreska pseudotaktowa	!
4F\	-(us)
2B-\	Pa-
!LO:TX:t=P:problem:kreska pseudotaktowa	!
2BB-/	-ter
=17-	=17-
2r	.
2BB-/	O-
2E-X\	-mni-
2E-\	-po-
=18-	=18-
!LO:TX:t=P:problem:kreska pseudotaktowa	!
1BB-	-tens
0r	.
=19-	=19-
.	.
!LO:TX:t=P:problem:kreska pseudotaktowa	!
1r	.
=20-	=20-
2BB-/	Je-
2AA/	-su
1BB-	X-
=21-	=21-
2F,<\	-te
4F\	Do-
4G\	-mi-
2F\	-ne
!LO:TX:t=P:problem:kreska pseudotaktowa	!
2Eny\	De-
=22-	=22-
2F,<\	-(us)
2C/	A-
2F\	-gn(us)
!LO:TX:t=P:problem:kreska pseudotaktowa	!
2BB-/	De-
=23-	=23-
2.C/	.
8BB-/L	.
8AA/J	.
!LO:TX:t=P:problem:kreska pseudotaktowa	!
1GG	-i,
=24-	=24-
2.C/	Fi-
4C/	-li-
2GG/	-(us)
!LO:TX:t=P:problem:kreska pseudotaktowa	!
!LO:SIC:v:t=custos F	!
2C/	Pa-
!LO:LB:g=original	!
=25-	=25-
2F,<\	-tris
2.F\	Fi-
4F\	-li-
2D\	-(us)
=26-	=26-
*lig	*
1BB-	Pa-
1F	.
*Xlig	*
=27-	=27-
0Cl;	-tris
=28||	=28||
*M2/1	*
*met(C|)	*
2F\	Qui
4F\	tol-
!LO:TX:t=P:problem:kreska pseudotaktowa	!
4F\	-lis
2E\	pec-
2F\	-ca-
=29-	=29-
!LO:TX:t=P:problem:kreska pseudotaktowa	!
1D	-ta
2C/	mun-
!LO:TX:t=P:problem:kreska pseudotaktowa	!
2F\	-di
=30-	=30-
!LO:TX:t=P:problem:kreska pseudotaktowa	!
1r	.
2.F\	mi-
4F\	-ſe-
=31-	=31-
2E\	-re-
!LO:TX:t=P:problem:kreska pseudotaktowa	!
2C/	-re
1G	no-
=32-	=32-
!LO:TX:t=P:problem:kreska pseudotaktowa	!
1C	-bis
2F\	qui
4F\	tol-
4F\	-lis
=33-	=33-
2D/	pec-
!LO:TX:t=P:problem:kreska pseudotaktowa	!
2AA/	-ca-
2D/	-ta
2BB-/	mun-
=34-	=34-
!LO:TX:t=P:problem:kreska pseudotaktowa	!
1C,<	-di
1r	.
=35-	=35-
2r	.
2.BB-/	de-
4BB-/	-pre-
4BB-/	-ca-
4BB-/	-ti-
=36-	=36-
2BB-/	-o-
!LO:TX:t=P:problem:kreska pseudotaktowa	!
2F\	-n(em)
!LO:LB:g=original	!
1C	no-
=37-	=37-
!LO:TX:t=P:problem:kreska pseudotaktowa	!
1F,<	-stram
00r	.
=38-	=38-
.	.
=39-	=39-
.	.
2.C/	mi-
4C/	-ſe-
=40-	=40-
2BB-/	-re-
2F\	-re
!LO:TX:t=P:problem:kreska pseudotaktowa	!
1BB-	no-
=41-	=41-
2F,<\	-bis
2.F\	Quo-
4G\	-ni-
!LO:TX:t=P:problem:kreska pseudotaktowa	!
2A\	-am
=42-	=42-
1D	Tu
2BB-/	so-
2BB-/	-l(us)
=43-	=43-
2F\	San-
!LO:TX:t=P:problem:kreska pseudotaktowa	!
2C/	-ct(us)
4r	.
4G\	Tu
4C/	so-
!LO:TX:t=P:problem:kreska pseudotaktowa	!
4C/	-l(us)
=44-	=44-
2F\	Do-
2F\	-mi-
2BB-/	-n(us)
4r	.
!LO:TX:t=P:problem:kreska pseudotaktowa	!
4BB-/	Tu
=45-	=45-
2F\	so-
4D/	-l(us)
4D/	al-
2.B-\	-tiſ-
4B-\	-si-
=46-	=46-
2A,<\	-m(us)
1F	Je-
!LO:TX:t=P:problem:kreska pseudotaktowa	!
2E\	-su
=47-	=47-
1F	X-
!LO:TX:t=P:problem:kreska pseudotaktowa	!
1C	-te
!LO:LB:g=original	!
=48-	=48-
2r	.
!LO:TX:t=P:problem:kreska pseudotaktowa	!
2F\	Cum
4G\	San-
4E\	-cto
4F\	Sp(i-
4D\	-ri)-
=49-	=49-
!LO:TX:t=P:problem:kreska pseudotaktowa	!
1C	-tu
2C/	in
4C/	glo-
!LO:TX:t=P:problem:kreska pseudotaktowa	!
4D/	-ri-
=50-	=50-
2C,</	-a
2GG/	De-
2C/	-i
!LO:TX:t=P:problem:kreska pseudotaktowa	!
2F\	Pa-
=51-	=51-
4.BB-/	.
8C/	.
!LO:TX:t=P:problem:kreska pseudotaktowa	!
2D/	-tris
1C	A-
=52-	=52-
!LO:TX:t=P:problem:kreska pseudotaktowa	!
1F,<	-men
2C/	in
4C/	glo-
4D/	-ri-
=53-	=53-
2C/	-a
!LO:TX:t=P:problem:kreska pseudotaktowa	!
2F\	De-
2C/	-i
2F\	Pa-
=54-	=54-
!LO:TX:t=P:problem:kreska pseudotaktowa	!
0C	-tris
=55-	=55-
0BB-	A-
=56-	=56-
0Fl;	-men.
==	==
*-	*-
!!!RDF**kern: < = below
!!!RDF**kern: l = terminal long
!!!ENC: Andrzej Kubiczek
!!!END: 2021-08-02
!!!ENC: Berenika Jozajtis
!!!END: 2021-07-05
